layouts/icon-pack/weapon_grenade.svg

<?xml version="1.0" encoding="UTF-8"?>
<svg width="1200pt" height="1200pt" version="1.1" viewBox="0 0 1200 1200" xmlns="http://www.w3.org/2000/svg">
 <g fill="#fff">
  <path d="m933.49 249.87c-30.258 1.5938-71.602 9.375-108.82 35.156-8.5352 5.9766-14.02 15.395-15.008 25.77-0.98828 10.371 2.6211 20.656 9.875 28.137 5.5039 5.6523 12.805 9.2148 20.648 10.07s15.742-1.0508 22.336-5.3828c20.539-13.801 44.988-20.602 69.703-19.383 8.9883 0.52734 17.852-2.293 24.875-7.9219 7.0273-5.6289 11.719-13.66 13.164-22.547 0.14062-0.84375 0.21094-1.3125 0.21094-1.3125 3.7969-22.922-14.227-43.781-36.984-42.586z"/>
  <path d="m1120.7 344.86-19.219-17.344c-5.2148-4.7461-12.121-7.1836-19.16-6.7656-7.0391 0.41797-13.609 3.6602-18.223 8.9922-4.6758 5.3711-7.0625 12.359-6.6484 19.469 0.41016 7.1094 3.5898 13.773 8.8516 18.57l19.195 17.344c5.2266 4.7695 12.156 7.2266 19.219 6.8047 7.0625-0.41797 13.656-3.6758 18.281-9.0312 4.6562-5.3867 7.0234-12.379 6.5938-19.488-0.42969-7.1055-3.6211-13.766-8.8906-18.551z"/>
  <path d="m1101.1 192.19-21.984 13.5c-6.0391 3.7695-10.363 9.7539-12.039 16.672-1.6797 6.918-0.57813 14.219 3.0625 20.336 3.5625 6.0898 9.4297 10.484 16.273 12.199 6.8477 1.7109 14.09 0.58984 20.102-3.1055l21.984-13.5c6.0352-3.7695 10.352-9.75 12.031-16.66 1.6758-6.9141 0.58203-14.211-3.0547-20.324-3.5586-6.0938-9.4258-10.496-16.27-12.211s-14.094-0.60156-20.105 3.0938z"/>
  <path d="m1011.9 88.383c-6.6875-2.2773-14.008-1.7734-20.32 1.3945-6.3164 3.168-11.094 8.7344-13.266 15.457l-8.2734 24.75c-2.2422 6.7344-1.7461 14.078 1.375 20.453 3.1211 6.3711 8.6172 11.266 15.312 13.625 6.6875 2.2773 14.008 1.7734 20.32-1.3945 6.3164-3.168 11.094-8.7344 13.266-15.457l8.25-24.75c2.25-6.7305 1.7617-14.074-1.3555-20.449-3.1172-6.375-8.6172-11.27-15.309-13.629z"/>
  <path d="m782.32 376.69-87.023-88.406c-4.0273-4.1172-9.1953-6.9336-14.84-8.0898-5.6406-1.1602-11.5-0.60156-16.824 1.5977 0 0-32.273 13.312-53.906 22.102-4.707 1.9609-8.2773 5.9414-9.7109 10.836-1.4336 4.8906-0.57812 10.168 2.3281 14.359 8.25 11.715 17.422 22.758 27.422 33.023 9.1406 9.375 10.148 24.656 1.3125 34.336-4.3633 4.8203-10.527 7.6211-17.027 7.7461s-12.762-2.4414-17.309-7.0898c-23.703-24.367-43.625-52.145-59.109-82.406-4.1133-8.0977-11.883-13.707-20.859-15.07-62.492-9.0078-126.23-2.9961-185.94 17.539-59.707 20.535-113.66 55-157.39 100.54-152.34 157.59-153.16 412.9-1.6172 571.36 49.18 51.855 111.43 89.484 180.21 108.93 68.773 19.441 141.52 19.977 210.56 1.543 69.051-18.43 131.85-55.145 181.79-106.27 92.977-94.523 130.88-223.85 113.74-346.73-1.2852-9.0352-6.8047-16.918-14.859-21.211-29.613-15.699-56.707-35.742-80.391-59.461-4.2695-4.2344-6.875-9.8555-7.3438-15.852-0.46875-5.9922 1.2305-11.953 4.7891-16.797 4.1523-5.4648 10.477-8.8555 17.324-9.2812 6.8516-0.42969 13.551 2.1484 18.348 7.0547 10.277 10.406 21.375 19.969 33.188 28.594 4.1328 2.9375 9.3945 3.7969 14.246 2.332 4.8555-1.4688 8.7578-5.0977 10.574-9.832 8.6484-21.938 21.727-54.75 21.727-54.75 2.1758-5.4062 2.7305-11.332 1.5977-17.051-1.1289-5.7148-3.9023-10.98-7.9727-15.152z"/>
 </g>
</svg>

<?xml version="1.0" encoding="UTF-8" standalone="no"?>
<!DOCTYPE svg PUBLIC "-//W3C//DTD SVG 1.1//EN" "http://www.w3.org/Graphics/SVG/1.1/DTD/svg11.dtd">
<svg width="100%" height="100%" viewBox="0 0 512 486" version="1.1" xmlns="http://www.w3.org/2000/svg" xmlns:xlink="http://www.w3.org/1999/xlink" xml:space="preserve" xmlns:serif="http://www.serif.com/" style="fill-rule:evenodd;clip-rule:evenodd;stroke-linejoin:round;stroke-miterlimit:2;">
    <g transform="matrix(1,0,0,1,-58.6782,-86.9763)">
        <g transform="matrix(0.472928,0,0,0.472928,30.9277,45.8428)">
            <path d="M933.49,249.87C903.232,251.464 861.888,259.245 824.67,285.026C816.135,291.003 810.65,300.421 809.662,310.796C808.674,321.167 812.283,331.452 819.537,338.933C825.041,344.585 832.342,348.148 840.185,349.003C848.028,349.858 855.927,347.952 862.521,343.62C883.06,329.819 907.509,323.018 932.224,324.237C941.212,324.765 950.076,321.944 957.099,316.315C964.126,310.686 968.818,302.655 970.263,293.768C970.404,292.925 970.474,292.456 970.474,292.456C974.271,269.534 956.247,248.675 933.49,249.87L933.49,249.87Z" style="fill:white;fill-rule:nonzero;"/>
            <path d="M1120.7,344.86L1101.48,327.516C1096.27,322.77 1089.36,320.332 1082.32,320.75C1075.28,321.168 1068.71,324.411 1064.1,329.743C1059.42,335.114 1057.04,342.102 1057.45,349.212C1057.86,356.321 1061.04,362.985 1066.3,367.782L1085.5,385.126C1090.72,389.895 1097.65,392.352 1104.71,391.93C1111.78,391.512 1118.37,388.255 1123,382.899C1127.65,377.512 1130.02,370.52 1129.59,363.411C1129.16,356.306 1125.97,349.645 1120.7,344.86L1120.7,344.86Z" style="fill:white;fill-rule:nonzero;"/>
            <path d="M1101.1,192.19L1079.12,205.69C1073.08,209.46 1068.75,215.444 1067.08,222.362C1065.4,229.28 1066.5,236.581 1070.14,242.698C1073.7,248.788 1079.57,253.182 1086.41,254.897C1093.26,256.608 1100.5,255.487 1106.52,251.791L1128.5,238.291C1134.53,234.522 1138.85,228.541 1140.53,221.631C1142.2,214.717 1141.11,207.42 1137.48,201.307C1133.92,195.214 1128.05,190.811 1121.2,189.096C1114.36,187.381 1107.11,188.495 1101.1,192.19L1101.1,192.19Z" style="fill:white;fill-rule:nonzero;"/>
            <path d="M1011.9,88.383C1005.21,86.106 997.892,86.61 991.58,89.777C985.264,92.946 980.486,98.512 978.314,105.235L970.041,129.985C967.798,136.719 968.295,144.063 971.416,150.438C974.537,156.809 980.033,161.704 986.728,164.063C993.415,166.34 1000.74,165.836 1007.05,162.668C1013.36,159.5 1018.14,153.934 1020.31,147.211L1028.56,122.461C1030.81,115.731 1030.33,108.387 1027.21,102.012C1024.09,95.637 1018.59,90.742 1011.9,88.383L1011.9,88.383Z" style="fill:white;fill-rule:nonzero;"/>
            <path d="M782.32,376.69L695.297,288.284C691.27,284.167 686.102,281.35 680.457,280.194C674.816,279.034 668.957,279.593 663.633,281.792C663.633,281.792 631.36,295.104 609.727,303.894C605.02,305.855 601.45,309.835 600.016,314.73C598.583,319.62 599.438,324.898 602.344,329.089C610.594,340.804 619.766,351.847 629.766,362.112C638.907,371.487 639.914,386.768 631.079,396.448C626.715,401.268 620.552,404.069 614.052,404.194C607.552,404.319 601.29,401.753 596.743,397.104C573.04,372.737 553.118,344.959 537.634,314.698C533.52,306.6 525.751,300.991 516.775,299.628C454.283,290.62 390.545,296.632 330.835,317.167C271.128,337.702 217.175,372.167 173.445,417.707C21.105,575.297 20.285,830.607 171.827,989.067C221.007,1040.92 283.257,1078.55 352.037,1098C420.81,1117.44 493.558,1117.97 562.598,1099.54C631.649,1081.11 694.448,1044.39 744.387,993.27C837.364,898.747 875.267,769.42 858.127,646.54C856.842,637.505 851.323,629.622 843.268,625.329C813.655,609.63 786.561,589.587 762.877,565.868C758.608,561.634 756.002,556.013 755.534,550.016C755.065,544.024 756.764,538.063 760.323,533.219C764.475,527.754 770.8,524.364 777.647,523.938C784.498,523.508 791.198,526.086 795.995,530.993C806.272,541.399 817.37,550.962 829.183,559.587C833.316,562.524 838.577,563.384 843.429,561.919C848.284,560.45 852.187,556.821 854.003,552.087C862.651,530.149 875.73,497.337 875.73,497.337C877.906,491.93 878.46,486.005 877.327,480.286C876.199,474.571 873.425,469.306 869.355,465.134L782.32,376.69Z" style="fill:white;fill-rule:nonzero;"/>
        </g>
    </g>
</svg>
